icon-themes/breeze_svg/cmd/sc_expandpage.svg

<svg viewBox="0 0 16 16" xmlns="http://www.w3.org/2000/svg">/&gt;<path d="m8 2v1 1h-3v1 1h-3v1 2 5h1 2 2 1v-1-1h2 1v-1-1h2 1v-1-6-1h-1zm1 1h4v6h-2v-4-1h-1-1zm-3 2h4v6h-2v-4-1h-1-1zm-3 2h2 1 1v6h-2-2v-4z" fill="#4d4d4d"/></svg>

<svg xmlns="http://www.w3.org/2000/svg" viewBox="0 0 16 16">
     />
 <path 
     style="fill:#4d4d4d" 
     d="M 8 2 L 8 3 L 8 4 L 5 4 L 5 5 L 5 6 L 2 6 L 2 7 L 2 9 L 2 14 L 3 14 L 5 14 L 7 14 L 8 14 L 8 13 L 8 12 L 10 12 L 11 12 L 11 11 L 11 10 L 13 10 L 14 10 L 14 9 L 14 3 L 14 2 L 13 2 L 8 2 z M 9 3 L 13 3 L 13 9 L 11 9 L 11 5 L 11 4 L 10 4 L 9 4 L 9 3 z M 6 5 L 10 5 L 10 11 L 8 11 L 8 7 L 8 6 L 7 6 L 6 6 L 6 5 z M 3 7 L 5 7 L 6 7 L 7 7 L 7 13 L 5 13 L 3 13 L 3 9 L 3 7 z "
     />
 </svg>
